src/topics/icons/pingy.svg

<?xml version="1.0" encoding="UTF-8"?>
<svg width="256px" height="383px" viewBox="0 0 256 383" version="1.1" xmlns="http://www.w3.org/2000/svg" xmlns:xlink="http://www.w3.org/1999/xlink" preserveAspectRatio="xMidYMid">
	<g>
		<path d="M256.0005,129.3793 C256.0005,173.4243 235.5665,198.0713 215.8075,221.9083 C200.4415,240.4423 185.8805,258.0093 181.6095,284.1663 C187.7255,286.8893 191.9555,293.0433 191.9555,300.1303 C191.9555,309.7843 184.1605,317.6383 174.5795,317.6383 L81.4215,317.6383 C71.8405,317.6383 64.0455,309.7843 64.0455,300.1303 C64.0455,293.0433 68.2755,286.8893 74.3895,284.1663 C70.1195,258.0103 55.5575,240.4423 40.1925,221.9083 C20.4325,198.0713 0.0005,173.4243 0.0005,129.3793 C0.0005,58.0393 57.4205,0.0003 127.9995,0.0003 C198.5795,0.0003 256.0005,58.0393 256.0005,129.3793 Z M174.5796,324.1859 C180.0646,324.1859 185.2896,326.8409 188.5556,331.2899 C191.9136,335.8659 192.8366,341.6829 191.0866,347.2499 C188.8826,354.2849 181.8906,359.1999 174.0846,359.1999 L173.9106,359.1999 C169.3386,359.1999 165.2216,361.7819 163.1626,365.9389 L163.0426,366.1839 C157.9896,376.4029 147.8196,382.7519 136.5016,382.7519 L119.5006,382.7519 C108.1856,382.7519 98.0146,376.4049 92.9546,366.1879 L92.8306,365.9369 C90.7756,361.7819 86.6586,359.1999 82.0856,359.1999 L81.9106,359.1999 C74.1046,359.1999 67.1126,354.2839 64.9086,347.2459 C63.1616,341.6799 64.0866,335.8629 67.4466,331.2879 C70.7116,326.8399 75.9356,324.1859 81.4216,324.1859 L174.5796,324.1859 Z" fill="#FFFFFF"></path>
		<path d="M186.2241,300.1303 C186.2241,306.6313 181.0071,311.9063 174.5781,311.9063 L81.4211,311.9063 C74.9941,311.9063 69.7771,306.6313 69.7771,300.1303 C69.7771,293.8593 74.6381,288.7783 80.7511,288.4253 C73.5031,222.1613 5.7311,207.4013 5.7311,129.3793 C5.7311,61.0913 60.4731,5.7323 128.0001,5.7323 C195.5271,5.7323 250.2691,61.0913 250.2691,129.3793 C250.2691,207.4003 182.4971,222.1613 175.2481,288.4263 C181.3621,288.7783 186.2241,293.8593 186.2241,300.1303 M174.5781,329.9173 L81.4211,329.9173 C73.7591,329.9173 67.8271,337.4013 70.3771,345.5323 C71.9131,350.4373 76.8221,353.4693 81.9111,353.4693 L82.0851,353.4693 C88.8111,353.4693 94.9591,357.3133 97.9691,363.3963 L98.0911,363.6443 C102.1501,371.8393 110.4351,377.0213 119.5001,377.0213 L136.5011,377.0213 C145.5671,377.0213 153.8521,371.8393 157.9051,363.6443 L158.0271,363.3963 C161.0371,357.3143 167.1851,353.4693 173.9101,353.4693 L174.0841,353.4693 C179.1731,353.4693 184.0811,350.4373 185.6191,345.5323 C188.1741,337.4013 182.2411,329.9173 174.5781,329.9173" fill="#333333"></path>
		<path d="M70.0112,143.0033 L122.1892,37.6593 C122.9432,36.3093 123.9352,35.6913 125.0672,35.6913 C126.7762,35.6913 128.1572,37.0783 128.1572,38.7963 C128.1572,38.8263 128.0782,39.4753 128.0782,39.4753 L119.2922,110.6993 C119.1962,111.5563 119.1772,111.8613 119.1772,112.1733 C119.1772,117.3133 123.3382,121.4763 128.4742,121.4763 L177.1592,121.5243 C184.3322,122.0873 189.9902,128.0953 189.9902,135.4303 C189.9902,137.5933 189.4972,139.6413 188.6102,141.4693 L136.0732,247.5523 L135.7442,248.2363 C135.1662,249.0733 134.2112,249.6173 133.1582,249.6173 C131.4492,249.6173 130.0492,248.2363 130.0492,246.5133 C130.1162,245.8893 138.8652,175.0303 138.8652,175.0303 C138.9692,174.5483 139.0302,174.0533 139.0482,173.5453 C139.0662,167.9893 134.9052,163.8203 129.7702,163.8203 L81.0352,163.7723 C73.8632,163.2163 68.2042,157.2073 68.2042,149.8723 C68.2042,147.9533 68.5812,146.1263 69.2872,144.4633 C69.2872,144.4573 70.0112,143.0033 70.0112,143.0033" fill="#FFCC00"></path>
	</g>
</svg>

<svg height="383" preserveAspectRatio="xMidYMid" viewBox="0 0 256 383" width="256" xmlns="http://www.w3.org/2000/svg"><path d="m256.0005 129.3793c0 44.045-20.434 68.692-40.193 92.529-15.366 18.534-29.927 36.101-34.198 62.258 6.116 2.723 10.346 8.877 10.346 15.964 0 9.654-7.795 17.508-17.376 17.508h-93.158c-9.581 0-17.376-7.854-17.376-17.508 0-7.087 4.23-13.241 10.344-15.964-4.27-26.156-18.832-43.724-34.197-62.258-19.76-23.837-40.192-48.484-40.192-92.529 0-71.34 57.42-129.379 127.999-129.379 70.58 0 128.001 58.039 128.001 129.379zm-81.4209 194.8066c5.485 0 10.71 2.655 13.976 7.104 3.358 4.576 4.281 10.393 2.531 15.96-2.204 7.035-9.196 11.95-17.002 11.95h-.174c-4.572 0-8.689 2.582-10.748 6.739l-.12.245c-5.053 10.219-15.223 16.568-26.541 16.568h-17.001c-11.315 0-21.486-6.347-26.546-16.564l-.124-.251c-2.055-4.155-6.172-6.737-10.745-6.737h-.175c-7.806 0-14.798-4.916-17.002-11.954-1.747-5.566-.822-11.383 2.538-15.958 3.265-4.448 8.489-7.102 13.975-7.102z" fill="#fff"/><path d="m186.2241 300.1303c0 6.501-5.217 11.776-11.646 11.776h-93.157c-6.427 0-11.644-5.275-11.644-11.776 0-6.271 4.861-11.352 10.974-11.705-7.248-66.264-75.02-81.024-75.02-159.046 0-68.288 54.742-123.647 122.269-123.647s122.269 55.359 122.269 123.647c0 78.021-67.772 92.782-75.021 159.047 6.114.352 10.976 5.433 10.976 11.704m-11.646 29.787h-93.157c-7.662 0-13.594 7.484-11.044 15.615 1.536 4.905 6.445 7.937 11.534 7.937h.174c6.726 0 12.874 3.844 15.884 9.927l.122.248c4.059 8.195 12.344 13.377 21.409 13.377h17.001c9.066 0 17.351-5.182 21.404-13.377l.122-.248c3.01-6.082 9.158-9.927 15.883-9.927h.174c5.089 0 9.997-3.032 11.535-7.937 2.555-8.131-3.378-15.615-11.041-15.615" fill="#333"/><path d="m70.0112 143.0033 52.178-105.344c.754-1.35 1.746-1.968 2.878-1.968 1.709 0 3.09 1.387 3.09 3.105 0 .03-.079.679-.079.679l-8.786 71.224c-.096.857-.115 1.162-.115 1.474 0 5.14 4.161 9.303 9.297 9.303l48.685.048c7.173.563 12.831 6.571 12.831 13.906 0 2.163-.493 4.211-1.38 6.039l-52.537 106.083-.329.684c-.578.837-1.533 1.381-2.586 1.381-1.709 0-3.109-1.381-3.109-3.104.067-.624 8.816-71.483 8.816-71.483.104-.482.165-.977.183-1.485.018-5.556-4.143-9.725-9.278-9.725l-48.735-.048c-7.172-.556-12.831-6.565-12.831-13.9 0-1.919.377-3.746 1.083-5.409 0-.006.724-1.46.724-1.46" fill="#fc0"/></svg>
